X:151
T:Rigaudon de Brignoles
O:France
A:Provence
C: Ren Gauthier - 1950
R:Rigaudon
N:Ecrit pour un concours de compositeurs en Suisse en 1950 o Ren Gauthier a obtenu le 1er prix,
N:Retenu ensuite par le matre de ballet des tambourinares de Brignoles pour en faire un rigaudon.
M:2/4
L:1/8
Q:1/4=90
K:Bbmajor
Gd|dd cd|BG G/A/B/c/|dc/B/ AG|A2 Bd|dd cd|BG G/A/B/c/|dc/B/ AB|G2 dd/e/|
f2 ed|c>d e>d|c>B A/B/c/e/|dB BB/d/|A2 BB/d/|A2 AA/B/|GF G2|G2 B2|
ee/f/ g>e| B2 eg|f/e/d/c/ d2|B2 ee/f/|g>e B2|eg f/e/d/c/|B2 ff|f>d c>e|dB c/B/A/G/|
F2 cc/d/|c2 ff|f>d c>e|dB c/B/A/G/|F2 cc/d/|B2|]
%%footer $D   Galouvielle-MBe 2008 \nRigaudon (France)
